X:7
T:Gavotte d'Yves Haire ton double - G
C:Jo\"el Huby
P:G4
Q:C3=156
M:12/8
K:C
P:G
%%MIDI gchord fzzczzfzcfzz
%%MIDI chordprog 41
%%MIDI bassprog 42
%%MIDI program 21
|: "C"G2 "g"d "A"e2 "g"d "G"c2 "g"d "C"B3 | "a"G2 "C"B "a"A"D"B"g"A "A"G3 "a"G3 :|
|: "D"G2 "c"d "E"e2 "c"d "E"c2 "e"d "D"B3 | "g"G2 "A"B "a"A2 "C"B "a"c2 "D"A "g"B3 | "A"G2 "a"d e2 d c2 d B3 |G2 B ABA G3 G3 :|

